docs/assets/img/video-camera.svg

<?xml version="1.0" encoding="UTF-8"?>
<svg width="24px" height="15px" viewBox="0 0 24 15" version="1.1" xmlns="http://www.w3.org/2000/svg" xmlns:xlink="http://www.w3.org/1999/xlink">
    <title>video-camera</title>
    <g id="Welcome" stroke="none" stroke-width="1" fill="none" fill-rule="evenodd">
        <g id="lpw-featured-development-landing-page-2.0" transform="translate(-162.000000, -551.000000)" fill="#FFFFFF" fill-rule="nonzero">
            <g id="Main-12" transform="translate(30.000000, 276.000000)">
                <g id="video-camera" transform="translate(132.000000, 275.000000)">
                    <path d="M23.7509269,1.33526899 C23.5963983,1.2446256 23.4053231,1.24108641 23.2476165,1.3262243 L17.7409958,4.30270817 L17.7409958,2.51677852 C17.7394068,1.12743815 16.6020921,0.00157298658 15.1986229,0 L2.54237288,0 C1.13890363,0.00157298658 0.00158898305,1.12743815 0,2.51677852 L0,12.4541212 C0.00158898305,13.8434616 1.13890363,14.9693268 2.54237288,14.9708997 L15.1986229,14.9708997 C16.6020921,14.9693268 17.7394068,13.8434616 17.7409958,12.4541212 L17.7409958,10.7006345 L23.2478151,13.6771183 C23.4053231,13.7622562 23.5965969,13.7589136 23.7509269,13.6682703 C23.9054555,13.5774303 24,13.4128565 24,13.2353057 L24,1.76803691 C24,1.59028943 23.9052569,1.42591233 23.7509269,1.33526899 Z M16.7236494,12.4543178 C16.7228548,13.2880007 16.0403867,13.9634018 15.1982257,13.9643849 L2.54237288,13.9643849 C1.70021186,13.9634018 1.01794225,13.2880007 1.01694915,12.4543178 L1.01694915,2.51677852 C1.01794225,1.68329225 1.70021186,1.00769451 2.54237288,1.00671141 L15.1986229,1.00671141 C16.0405853,1.00769451 16.7230535,1.68329225 16.7240466,2.51677852 L16.7236494,12.4543178 Z M22.9830508,12.3870727 L17.7409958,9.55373059 L17.7409958,5.449612 L22.9830508,2.61646656 L22.9830508,12.3870727 Z" id="Shape"></path>
                </g>
            </g>
        </g>
    </g>
</svg>

<svg width="24" height="15" xmlns="http://www.w3.org/2000/svg"><path d="M23.75 1.335a.513.513 0 00-.502-.009L17.74 4.303V2.517C17.739 1.127 16.602.002 15.199 0H2.542C1.14.002.002 1.127 0 2.517v9.937c.002 1.39 1.139 2.515 2.542 2.517H15.2c1.403-.002 2.54-1.128 2.542-2.517v-1.753l5.507 2.976a.513.513 0 00.503-.009.503.503 0 00.249-.433V1.768a.502.502 0 00-.25-.433zm-7.026 11.12a1.52 1.52 0 01-1.526 1.51H2.542a1.52 1.52 0 01-1.525-1.51V2.516a1.52 1.52 0 011.525-1.51H15.2a1.52 1.52 0 011.525 1.51v9.937zm6.26-.068L17.74 9.554V5.45l5.242-2.834v9.771z" fill="#FFF"/></svg>
